!!!!SEGMENT: pl-wtm--r-1549--005_stefani-jozef--msza-no-8-benedictus-terzetto.krn
!!!cenid: 18xx:1806
!!!COM: Stefani, Józef
!!!COM-rismid: pe30024097
!!!CDT: 1800/04/16-1876/03/19
!!!CNT: Polish
!!!OPR: Msza No 8
!!!OTL: Benedictus Terzetto
!!!OMV: 005
!!!PDT:
!!!AGN: Sacred; Mass
!!!SMS-siglum: PL-Wtm
!!!SMS-shelfmark: R 1549
!!!SMS-shelfwork: 001-005 M
!!!SMS-variant:
!!!SMS-altvar:
!!!NIFC-rismid: 1001115167
!!!URL-scan: http://repozytorium.nifc.pl/skany/pl-wtm-nut--r1549
!!!ONB-nifc: UWAGA: części Mszy: 1. Kyrie, 2. Gloria, 3. Credo, 4. Sanctus, 5. Benedictus Terzetto, 6. Agnus Dei. W źródle Benedictus wpisany po Agnus Dei
**kern	**kern	**kern	**kern	**kern	**dynam	**kern	**text	**dynam	**kern	**text	**dynam	**kern	**text	**dynam
*part8	*part7	*part6	*part5	*part4	*part4	*part3	*part3	*part3	*part2	*part2	*part2	*part1	*part1	*part1
*staff8	*staff7	*staff6	*staff5	*staff4	*	*staff3	*staff3	*	*staff2	*staff2	*	*staff1	*staff1	*
*Iempty	*Iviola	*Ivioln	*Ivioln	*Icor	*	*Ivox	*	*	*Ivox	*	*	*Ivox	*	*
*I"Basſo	*I"Viole	*I"Violini	*I"Violini	*I"Corni in Es ad libitum	*	*I"Voce	*	*	*I"Voce	*	*	*I"Voce	*	*
*I'b	*I'vla	*I'vl 2	*I'vl 1	*I'cor in E|b	*	*I'V 3	*	*	*I'V 2	*	*	*I'V 1	*	*
*clefF4	*clefC3	*clefG2	*clefG2	*clefG2	*	*clefG2	*	*	*clefG2	*	*	*clefG2	*	*
*	*	*	*	*ITrd5c9	*	*	*	*	*	*	*	*	*	*
*k[b-e-a-]	*k[b-e-a-]	*k[b-e-a-]	*k[b-e-a-]	*k[b-e-a-]	*	*k[b-e-a-]	*	*	*k[b-e-a-]	*	*	*k[b-e-a-]	*	*
*E-:	*E-:	*E-:	*E-:	*E-:	*	*E-:	*	*	*E-:	*	*	*E-:	*	*
*M3/4	*M3/4	*M3/4	*M3/4	*M3/4	*	*M3/4	*	*	*M3/4	*	*	*M3/4	*	*
*	*	*	*	*	*above	*	*	*	*	*	*	*	*	*
*	*	*	*	*^	*	*	*	*	*	*	*	*	*	*
!	!	!	!	!	!	!	!	!	!	!	!	!	!LO:TX:t=P:problem:all\right:global	!	!
!	!	!	!	!	!	!LO:DY:rj	!	!	!	!	!	!	!LO:TX:rj:a:t=Andante.	!	!
4ryy	4ryy	4ryy	4ryy	4B-/	4B-\	f	4B-/	.	.	4b-\	.	.	4b-\	Wszech-	<[
*	*	*	*	*v	*v	*	*	*	*	*	*	*	*	*	*
=1	=1	=1	=1	=1	=1	=1	=1	=1	=1	=1	=1	=1	=1	=1
*	*	*	*	*	*	*	*	*	*	*	*	*2\right	*	*
!	!	!	!	!	!	!	!	!	!	!	!	!	!	!LO:DY:rj
2.ryy	2.ryy	2.ryy	2.ryy	2e-/ 2E-/	.	2e-/	.	.	2g/	.	.	2ee-\	-moc-	f
.	.	.	.	4r	.	4e-/	.	.	4a-/	.	.	4cc\	-ny	.
=2	=2	=2	=2	=2	=2	=2	=2	=2	=2	=2	=2	=2	=2	=2
2.ryy	2.ryy	2.ryy	2.ryy	2.r	.	2e-/	.	.	([4g/	.	.	(>[4b-/	Pa-	.
.	.	.	.	.	.	.	.	.	16g/LL]	.	.	16b-/LL]	.	.
.	.	.	.	.	.	.	.	.	16a-/	.	.	16cc/	.	.
.	.	.	.	.	.	.	.	.	16g/	.	.	16b-/	.	.
.	.	.	.	.	.	.	.	.	16f/JJ	.	.	16a-/JJ	.	.
.	.	.	.	.	.	4e-/	.	.	4e-/)	.	.	4g/)	-nie	.
=3	=3	=3	=3	=3	=3	=3	=3	=3	=3	=3	=3	=3	=3	=3
!	!	!	!	!	!LO:DY:rj	!	!	!	!	!	!LO:DY:rj	!	!	!
2.ryy	2.ryy	2.ryy	2.ryy	8.e-/L 8.G/	p	8.G/	.	.	8.e-/	Wie-	p	2.r	.	.
.	.	.	.	16e-/Jk 16G/	.	16G/	.	.	16e-/	-ku-	.	.	.	.
.	.	.	.	4e-/ 4G/	.	4G/	.	.	4e-/	-i-	.	.	.	.
.	.	.	.	4f/ 4B-/	.	4B-/	.	.	4f/	-sty	.	.	.	.
!!LO:LB;g=original
=4	=4	=4	=4	=4	=4	=4	=4	=4	=4	=4	=4	=4	=4	=4
*	*	*	*	*^	*	*	*	*	*	*	*	*	*	*
2.ryy	2.ryy	2.ryy	2.ryy	4g\ 4e-\	4ryy	.	4e-/	.	.	4g/	Bo-	.	4r	.	.
.	.	.	.	4f\ 4B-\	4ryy	.	4B-/	.	.	4f/	-że	.	4r	.	.
.	.	.	.	4B-\	4B-/	<	4r	.	.	4b-\	.	.	4b-\	Któż	<[
=5	=5	=5	=5	=5	=5	=5	=5	=5	=5	=5	=5	=5	=5	=5	=5
*	*	*	*	*	*2\right	*	*	*	*	*2\right	*	*	*	*	*
!	!	!	!	!	!	!LO:DY:rj	!	!	!	!	!	!	!	!	!LO:DY:rj
2.ryy	2.ryy	2.ryy	2.ryy	2g/	2e-\	[ f	8r	.	.	2ee-\	.	.	2gg\	się	f
.	.	.	.	.	.	.	8e-/	.	.	.	.	.	.	.	.
.	.	.	.	.	.	.	4e-/	.	.	.	.	.	.	.	.
.	.	.	.	4r	4ryy	.	4e-/	.	.	16dd\LL	.	.	16ff\LL	Twym	.
.	.	.	.	.	.	.	.	.	.	16cc\	.	.	16ee-\	.	.
.	.	.	.	.	.	.	.	.	.	16b-\	.	.	16dd\	.	.
.	.	.	.	.	.	.	.	.	.	16a-\JJ	.	.	16cc\JJ	.	.
*	*	*	*	*v	*v	*	*	*	*	*	*	*	*	*	*
=6	=6	=6	=6	=6	=6	=6	=6	=6	=6	=6	=6	=6	=6	=6
2.ryy	2.ryy	2.ryy	2.ryy	4r	.	2e-/	.	.	2g/	.	.	2b-/	spra-	.
.	.	.	.	4r	.	.	.	.	.	.	.	.	.	.
.	.	.	.	4g\ 4e-\	.	4e-/	.	.	4e-/	.	.	4g/	-wom	.
=7	=7	=7	=7	=7	=7	=7	=7	=7	=7	=7	=7	=7	=7	=7
*	*	*	*	*^	*	*	*	*	*	*	*	*	*	*
!	!	!	!	!	!	!LO:DY:rj:b	!	!	!LO:DY:rj	!	!	!	!	!	!LO:DY:rj
2.ryy	2.ryy	2.ryy	2.ryy	2.f/	2.B-\	p	4.e-/	.	p	4.f/	.	.	4.a-/	wy-	p
.	.	.	.	.	.	.	(>16d/LL	.	.	8f/	.	.	8a-/	-dzi-	.
.	.	.	.	.	.	.	16c/JJ)	.	.	.	.	.	.	.	.
.	.	.	.	.	.	.	8d/	.	.	8f/	.	.	8a-/	-wo-	.
.	.	.	.	.	.	.	8B-/	.	.	8d/	.	.	8b-/	-wać	.
=8	=8	=8	=8	=8	=8	=8	=8	=8	=8	=8	=8	=8	=8	=8	=8
2.ryy	2.ryy	2.ryy	2.ryy	4.g/	4.e-\	.	4e-/	.	.	4e-/	.	.	4g/	mo-	.
.	.	.	.	.	.	.	8e-/	.	.	8e-/	.	.	8g/	-że	.
.	.	.	.	8r	8ryy	.	8c/	.	.	8g/	.	.	16ee-\LL	Kto	f
.	.	.	.	.	.	.	.	.	.	.	.	.	32ff\L	.	.
.	.	.	.	.	.	.	.	.	.	.	.	.	32ee-\JJJ	.	.
.	.	.	.	4r	4ryy	.	8Bn/	.	.	8g/	.	.	8dd\	ro-	.
.	.	.	.	.	.	.	8c/	.	.	8g/	.	.	8ee-\	-zu-	.
*	*	*	*	*v	*v	*	*	*	*	*	*	*	*	*	*
!!LO:LB:g=original
=9	=9	=9	=9	=9	=9	=9	=9	=9	=9	=9	=9	=9	=9	=9
2.ryy	2.ryy	2.ryy	2.ryy	2.r	.	4f/	.	.	4an\	.	.	4cc\	-mo-	.
.	.	.	.	.	.	8f/	.	.	8a\	.	.	8cc\	-wi	.
.	.	.	.	.	.	16f/	.	.	16b-\	.	.	16dd\	Któ-	.
.	.	.	.	.	.	16f/	.	.	16a\	.	.	16cc\	-rym	.
.	.	.	.	.	.	8f/	.	.	8g/	.	.	8b-\	nie	.
.	.	.	.	.	.	8f/	.	.	8a/	.	.	8cc\	zmie-	.
=10	=10	=10	=10	=10	=10	=10	=10	=10	=10	=10	=10	=10	=10	=10
2.ryy	2.ryy	2.ryy	2.ryy	2.r	.	4B-/	.	.	4b-\	.	.	4dd\	-nio-	.
.	.	.	.	.	.	8B-/	.	.	8b-\	.	.	8dd\	-na	.
.	.	.	.	.	.	8r	.	.	8r	.	.	8r	.	.
.	.	.	.	.	.	(4d/	.	.	(4b-\	.	.	[4ff\	Źie-	<[
=11	=11	=11	=11	=11	=11	=11	=11	=11	=11	=11	=11	=11	=11	=11
2.ryy	2.ryy	2.ryy	2.ryy	2.r	.	2c/)	.	.	2g/)	.	.	4.ff\]	.	>
.	.	.	.	.	.	.	.	.	.	.	.	8ee-\	.	]
.	.	.	.	.	.	8f/	.	.	8b-\	.	.	8dd\	-mia	.
.	.	.	.	.	.	8f/	.	.	8an\	.	.	8cc\	stwo-	.
=12	=12	=12	=12	=12	=12	=12	=12	=12	=12	=12	=12	=12	=12	=12
2.ryy	2.ryy	2.ryy	2.ryy	2.r	.	4B-/	.	.	4b-\	.	.	4dd\	-rzo-	.
.	.	.	.	.	.	8B-/	.	.	8b-\	.	.	8dd\	-na	.
.	.	.	.	.	.	8r	.	.	8r	.	.	8r	.	.
.	.	.	.	.	.	4d/	.	.	4b-\	.	.	([4ff\	źie-	<[
!!LO:LB:g=original
=13	=13	=13	=13	=13	=13	=13	=13	=13	=13	=13	=13	=13	=13	=13
!	!	!	!	!LO:TX:t=P:problem:błędne oznaczenie tonacji - wymazane	!	!	!	!	!	!	!	!	!	!
2.ryy	2.ryy	2.ryy	2.ryy	4r	.	2c/	.	.	2g/	.	.	4.ff\]	.	.
.	.	.	.	4r	.	.	.	.	.	.	.	.	.	.
.	.	.	.	.	.	.	.	.	.	.	.	8ee-\)	.	.
.	.	.	.	8.r	.	8e-/	.	.	8g/	.	.	8cc\	-mia	.
.	.	.	.	.	.	16r	.	.	16r	.	.	16r	.	.
.	.	.	.	.	f	.	.	.	.	.	.	.	.	f
.	.	.	.	16eX/ 16B-/	.	16en/	.	.	16cc#X\	.	.	16gg\	Ta	.
=14	=14	=14	=14	=14	=14	=14	=14	=14	=14	=14	=14	=14	=14	=14
2.ryy	2.ryy	2.ryy	2.ryy	4d/ 4B-/	.	4f/	.	.	4dd\	.	.	(16gg\LL	źie-	.
.	.	.	.	.	.	.	.	.	.	.	.	16ff\	.	.
.	.	.	.	.	.	.	.	.	.	.	.	16dd\	.	.
.	.	.	.	.	.	.	.	.	.	.	.	16b-\JJ)	.	.
.	.	.	.	8d/ 8B-/	.	8f/	.	.	8dd\	.	.	8f/	-mia	.
.	.	.	.	8r	.	16r	.	.	16r	.	.	16r	.	p
.	.	.	.	.	.	16f/	.	.	16f/	.	.	16f/	stwo-	.
.	.	.	.	.	p	.	.	.	.	.	.	.	.	.
.	.	.	.	4AX/ 4E-/	.	4f/	.	.	4an/	.	.	(8.dd^\L	-rzo-	.
.	.	.	.	.	.	.	.	.	.	.	.	16cc\Jk)	.	.
=15	=15	=15	=15	=15	=15	=15	=15	=15	=15	=15	=15	=15	=15	=15
2.ryy	2.ryy	2.ryy	2.ryy	4B-/ 4D/	.	4B-/	.	.	4b-/	.	.	4b-\	-na	.
.	.	.	.	4r	.	8r	.	.	4r	.	.	4r	.	.
.	.	.	.	.	.	(>16B-/LL	Gdzie	.	.	.	.	.	.	.
.	.	.	.	.	.	32An/L	.	.	.	.	.	.	.	.
.	.	.	.	.	.	32B-/JJJ)	.	.	.	.	.	.	.	.
.	.	.	.	4r	.	8d/	Kol-	.	4r	.	.	4r	.	.
.	.	.	.	.	.	8f/	-wiek	.	.	.	.	.	.	.
!!LO:LB:g=original
=16	=16	=16	=16	=16	=16	=16	=16	=16	=16	=16	=16	=16	=16	=16
2.ryy	2.ryy	2.ryy	2.ryy	4r	.	(2.B-/	słoń-	.	4r	.	.	4r	.	.
.	.	.	.	8r	.	.	.	.	8r	.	.	8r	.	.
.	.	.	.	8B-/L 8BB-/	.	.	.	.	8b-/	.	.	8b-\	Gdzie	.
.	.	.	.	8B-/ 8BB-/	.	.	.	.	8a-X/	.	.	8cc\	Kol-	.
.	.	.	.	8B-/J 8BB-/	.	.	.	.	8f/	.	.	8dd\	-wiek	.
=17	=17	=17	=17	=17	=17	=17	=17	=17	=17	=17	=17	=17	=17	=17
2.ryy	2.ryy	2.ryy	2.ryy	4.B-/ 4.E-/	.	4e-/)	.	.	4g/	.	.	(16ff\LL	słoń-	.
.	.	.	.	.	.	.	.	.	.	.	.	16ee-\	.	.
.	.	.	.	.	.	.	.	.	.	.	.	16dd\	.	.
.	.	.	.	.	.	.	.	.	.	.	.	16ee-\JJ)	.	.
.	.	.	.	.	.	8e-/	-ce	.	8g/	.	.	8b-\	-ce	.
!	!	!	!	!	!	!LO:N:vis=8	!	!	!	!	!	!	!	!
.	.	.	.	8r	.	16B-/	rzu-	.	8r	.	.	8r	.	.
!	!	!	!	!	!	!LO:N:vis=16	!	!	!	!	!	!	!	!
.	.	.	.	.	.	(>32An/LLL	-ca	.	.	.	.	.	.	.
!	!	!	!	!	!	!LO:N:vis=16	!	!	!	!	!	!	!	!
.	.	.	.	.	.	32B-/JJJ)	.	.	.	.	.	.	.	.
.	.	.	.	4r	.	8e-/	og-	.	4r	.	.	4r	.	.
.	.	.	.	.	.	8g/	-nie	.	.	.	.	.	.	.
=18	=18	=18	=18	=18	=18	=18	=18	=18	=18	=18	=18	=18	=18	=18
2.ryy	2.ryy	2.ryy	2.ryy	4r	.	2.B-/	swo-	.	4r	.	.	4r	.	.
.	.	.	.	8r	.	.	.	.	8r	.	.	8r	.	.
.	.	.	.	16B-/LL 16BB-/	.	.	.	.	16b-/	.	.	16b-\	Rzu-	.
.	.	.	.	16B-/J 16BB-/	.	.	.	.	16b-/	.	.	16b-\	-ca	.
.	.	.	.	8B-/ 8BB-/	.	.	.	.	8a-/	.	.	8cc\	o-	.
.	.	.	.	8B-/J 8BB-/	.	.	.	.	8f/	.	.	8dd\	-gnie	.
!!LO:LB:g=original
=19	=19	=19	=19	=19	=19	=19	=19	=19	=19	=19	=19	=19	=19	=19
2.ryy	2.ryy	2.ryy	2.ryy	4.B-/ 4.E-/	.	4e-/	.	.	4g/	.	.	(16ff\LL	swo-	.
.	.	.	.	.	.	.	.	.	.	.	.	16ee-\	.	.
.	.	.	.	.	.	.	.	.	.	.	.	16gg\	.	.
.	.	.	.	.	.	.	.	.	.	.	.	16ee-\JJ)	.	.
.	.	.	.	.	.	8e-/	-ie	.	8g/	.	.	8b-\	-ie	.
.	.	.	.	.	.	.	.	f	.	.	.	.	.	f
.	.	.	.	8e-/L 8E-/	.	8e-/	po	.	8g/	.	.	16ee-\LL	po	.
.	.	.	.	.	.	.	.	.	.	.	.	32ff\L	.	.
.	.	.	.	.	.	.	.	.	.	.	.	32ee-\JJJ	.	.
.	.	.	.	8d/ 8F/	.	8f/	ca-	.	8a-/	.	.	8dd\	ca-	.
.	.	.	.	8e-/J 8G/	.	8g/	-łym	.	8b-/	.	.	8ee-\	-łym	.
=20	=20	=20	=20	=20	=20	=20	=20	=20	=20	=20	=20	=20	=20	=20
*	*	*	*	*^	*	*	*	*	*	*	*	*	*	*
2.ryy	2.ryy	2.ryy	2.ryy	4c/	4A-\	.	8.a-/	świe-	.	8.a-/	.	.	8.cc\	świe-	.
.	.	.	.	.	.	.	16a-/	-cie	.	16a-/	.	.	16cc\	-cie	.
.	.	.	.	4r	4ryy	.	8.f/	sły-	.	8.cc\	.	.	8.aa-\	sły-	.
.	.	.	.	.	.	.	16f/	-nie	.	16a-/	.	.	16cc\	-nie	.
.	.	.	.	8.f/L 8.B-/	4ryy	.	8.b-/	I-	.	8.b-/	.	.	8.dd\	I-	.
.	.	.	.	16f/Jk 16B-/	.	.	16B-/	-mie	.	16a-/	.	.	16ff\	-mie	.
*	*	*	*	*v	*v	*	*	*	*	*	*	*	*	*	*
=21	=21	=21	=21	=21	=21	=21	=21	=21	=21	=21	=21	=21	=21	=21
2.ryy	2.ryy	2.ryy	2.ryy	4.e-/ 4.G/	.	4e-/	Two-	.	4g/	.	.	4ee-\	Two-	.
.	.	.	.	.	.	8e-/	-je	.	8g/	.	.	8ee-\	-ie	.
.	.	.	.	8r	.	8e-/	Bo	.	8r	.	.	8r	.	.
.	.	.	.	4r	.	8g/	sła-	.	4r	.	.	4r	.	.
.	.	.	.	.	.	8a-/	-wy	.	.	.	.	.	.	.
!!LO:PB:g=original
=22	=22	=22	=22	=22	=22	=22	=22	=22	=22	=22	=22	=22	=22	=22
2.ryy	2.ryy	2.ryy	2.ryy	2.r	.	(2b-/	Nie-	.	4r	.	.	2.r	.	.
.	.	.	.	.	.	.	.	.	8r	.	.	.	.	.
.	.	.	.	.	.	.	.	.	8b-\	Bo-	.	.	.	.
.	.	.	.	.	.	8b-/L	.	.	8dd\	-sła-	.	.	.	.
.	.	.	.	.	.	8a-/J	.	.	8ff\	-wy	.	.	.	.
=23	=23	=23	=23	=23	=23	=23	=23	=23	=23	=23	=23	=23	=23	=23
*	*	*	*	*^	*	*	*	*	*	*	*	*	*	*
2.ryy	2.ryy	2.ryy	2.ryy	4r	4ryy	.	4g/)	.	.	4ee-\	Nie-	.	4r	.	.
.	.	.	.	4r	4ryy	.	8g/	-bo	.	8b-\	-bo	.	8r	.	.
.	.	.	.	.	.	.	8r	.	.	8ee-\	Bo	.	8gg\	Bo	.
.	.	.	.	[<4E-^/	4E-\	.	4e-/	o-	.	(16dd\LL	sła-	.	(16ff\LL	sła-	.
.	.	.	.	.	.	.	.	.	.	16cc\JJ)	.	.	16ee-\JJ)	.	.
.	.	.	.	.	.	.	.	.	.	(16b-\LL	-wy	.	(16dd\LL	-wy	.
.	.	.	.	.	.	.	.	.	.	16a-\JJ)	.	.	16cc\JJ)	.	.
=24	=24	=24	=24	=24	=24	=24	=24	=24	=24	=24	=24	=24	=24	=24	=24
!	!	!	!	!	!	!LO:DY:rj	!	!	!LO:DY:rj	!	!	!	!	!	!LO:DY:rj
2.ryy	2.ryy	2.ryy	2.ryy	4E-/]	4E-\	p	2.e-/	-gar-	p	4g/	.	.	4b-\	Nie-	p
.	.	.	.	4r	4ryy	.	.	.	.	4e-/	.	.	4g/	-bo	.
.	.	.	.	4g/	4e-\	.	.	.	.	4e-/	.	.	4g/	o-	.
*	*	*	*	*v	*v	*	*	*	*	*	*	*	*	*	*
=25	=25	=25	=25	=25	=25	=25	=25	=25	=25	=25	=25	=25	=25	=25
2.ryy	2.ryy	2.ryy	2.ryy	2.f/ 2.B-/	.	(>4.e-/	.	.	2f/	.	.	2a-/	-gar-	.
.	.	.	.	.	.	16d/LL	.	.	.	.	.	.	.	.
.	.	.	.	.	.	16c/JJ)	.	.	.	.	.	.	.	.
.	.	.	.	.	.	8.d/	-nąć	.	8.f/	.	.	8.a-/	-nąć	.
.	.	.	.	.	.	16B-/	nie	.	16d/	.	.	16b-/	nie	.
!!LO:LB:g=original
=26	=26	=26	=26	=26	=26	=26	=26	=26	=26	=26	=26	=26	=26	=26
2.ryy	2.ryy	2.ryy	2.ryy	4.e-/ 4.G/	.	4e-/	mo-	.	4e-/	.	.	4g/	mo-	.
.	.	.	.	.	.	8e-/	-że	.	8e-/	.	.	8g/	-że	.
.	.	.	.	8r	.	16r	.	.	16r	.	.	16r	.	.
.	.	.	.	.	.	.	.	.	.	.	.	.	.	f
.	.	.	.	.	.	16A-/	.	.	16a-/	.	.	16cc\	Po-	.
.	.	.	.	8.B-/L 8.BB-/	.	8.B-/	.	.	8.g/	.	.	8.b-\	-tę-	.
.	.	.	.	16B-/Jk 16BB-/	.	16B-/	.	.	16f/	.	.	16dd\	-żny	.
=27	=27	=27	=27	=27	=27	=27	=27	=27	=27	=27	=27	=27	=27	=27
2.ryy	2.ryy	2.ryy	2.ryy	4G/ 4E-/	.	4c/	.	.	4g/	.	.	4ee-\	Bo-	.
.	.	.	.	8G/ 8E-/	.	8c/	.	.	8g/	.	.	8ee-\	-że	.
.	.	.	.	8r	.	8r	.	.	8r	.	.	8r	.	.
.	.	.	.	4r	.	4B-/	.	.	4g/	.	.	4een\	Po-	.
=28	=28	=28	=28	=28	=28	=28	=28	=28	=28	=28	=28	=28	=28	=28
2.ryy	2.ryy	2.ryy	2.ryy	2.r	.	(4A-/	.	.	2a-/	.	.	2ff\	-tę-	<
.	.	.	.	.	.	4a-/)	.	.	.	.	.	.	.	.
.	.	.	.	.	.	4f/	.	.	4cc\	.	.	4aa-\	-żny	[[
=29	=29	=29	=29	=29	=29	=29	=29	=29	=29	=29	=29	=29	=29	=29
*	*	*	*	*^	*	*	*	*	*	*	*	*	*	*
2.ryy	2.ryy	2.ryy	2.ryy	2.B-/	2.B-\	.	(4b-\	Bo-	.	(4b-\	.	.	([2dd\	Bo-	>
.	.	.	.	.	.	.	4..B-/	.	.	4..a-/)	.	.	.	.	.
.	.	.	.	.	.	.	.	.	.	.	.	.	8.dd\L]	.	]
.	.	.	.	.	.	.	16e-/)	.	.	16g/	.	.	16ee-\Jk)	.	.
*	*	*	*	*v	*v	*	*	*	*	*	*	*	*	*	*
=30	=30	=30	=30	=30	=30	=30	=30	=30	=30	=30	=30	=30	=30	=30
2.ryy	2.ryy	2.ryy	2.ryy	4B-/ 4E-/	.	4e-/	-że	.	4g/	.	.	4ee-\	-że	.
.	.	.	.	4r	.	4r	.	.	8r	.	.	8r	.	p
.	.	.	.	.	.	.	.	.	8a-/	.	.	8cc\	po	.
.	.	.	.	4r	.	4r	.	.	8.g/	.	.	8.b-/L	ca-	.
.	.	.	.	.	.	.	.	.	16f#X/	.	.	16an/Jk	-łym	.
!!LO:LB:g=original
=31	=31	=31	=31	=31	=31	=31	=31	=31	=31	=31	=31	=31	=31	=31
2.ryy	2.ryy	2.ryy	2.ryy	8r	p	8r	.	.	4g/	.	.	4b-\	świe-	.
.	.	.	.	8e-/ 8E-/	.	8e-/	.	.	.	.	.	.	.	.
.	.	.	.	4e-/ 4E-/	.	4e-/	.	.	8e-/	.	.	8g/	-cie	.
.	.	.	.	.	.	.	.	.	16a-/	.	.	16cc\	sły-	.
.	.	.	.	.	.	.	.	.	16a-/	.	.	16cc\	-nie	.
.	.	.	.	4e-/ 4E-/	.	4e-/	.	.	8.g/	.	.	8.b-\	I-	.
.	.	.	.	.	.	.	.	.	16f#X/	.	.	16an\	-mie	.
=32	=32	=32	=32	=32	=32	=32	=32	=32	=32	=32	=32	=32	=32	=32
2.ryy	2.ryy	2.ryy	2.ryy	2.e-/ 2.E-/	.	2e-/	.	.	4g/	.	.	8.b-\L	Two-	.
.	.	.	.	.	.	.	.	.	.	.	.	16ee-\Jk	.	.
.	.	.	.	.	.	.	.	.	8g/	.	.	8ee-\	-je	.
.	.	.	.	.	.	.	.	.	8r	.	.	8r	.	.
.	.	.	.	.	.	4e-/	.	.	4r	.	.	4r	.	.
=33	=33	=33	=33	=33	=33	=33	=33	=33	=33	=33	=33	=33	=33	=33
*	*	*	*	*^	*	*	*	*	*	*	*	*	*	*
!	!	!	!	!	!	!	!	!	!	!	!	!	!	!	!LO:DY:rj
2.ryy	2.ryy	2.ryy	2.ryy	8c/	8A-\	.	8.A-/	.	.	8.a-/	.	.	8.cc\	sły-	f
.	.	.	.	8r	8ryy	.	.	.	.	.	.	.	.	.	.
.	.	.	.	.	.	f	16A-/	.	.	16a-/	.	.	16cc\	-nie	.
.	.	.	.	4B-/	4G\	.	4B-/	.	.	4g/	.	.	4b-\	I-	.
.	.	.	.	4d/	4A-\	.	4B-/	.	.	4f/	.	.	4dd\	-mie	.
=34	=34	=34	=34	=34	=34	=34	=34	=34	=34	=34	=34	=34	=34	=34	=34
2.ryy	2.ryy	2.ryy	2.ryy	4e-/	2G\	.	[2.e-/	.	.	[2.g/	.	.	[2.ee-\	Two-	.
.	.	.	.	4B-/	.	.	.	.	.	.	.	.	.	.	.
.	.	.	.	4g/	4e-\	.	.	.	.	.	.	.	.	.	.
=35	=35	=35	=35	=35	=35	=35	=35	=35	=35	=35	=35	=35	=35	=35	=35
2.ryy	2.ryy	2.ryy	2.ryy	4e-/	2G\	.	2.e-/]	.	.	2.g/]	.	.	2.ee-\]	.	.
.	.	.	.	4B-/	.	.	.	.	.	.	.	.	.	.	.
.	.	.	.	4g/	4e-\	.	.	.	.	.	.	.	.	.	.
=36	=36	=36	=36	=36	=36	=36	=36	=36	=36	=36	=36	=36	=36	=36	=36
2.ryy	2.ryy	2.ryy	2.ryy	4e-/	4G\	.	4e-/	.	.	4g/	.	.	4ee-\	-je.	.
.	.	.	.	4B-/	4B-\	.	4r	.	.	4r	.	.	4r	.	.
.	.	.	.	4G/	4G\	.	4r	.	.	4r	.	.	4r	.	.
=37	=37	=37	=37	=37	=37	=37	=37	=37	=37	=37	=37	=37	=37	=37	=37
2.ryy	2.ryy	2.ryy	2.ryy	2.E-;/	2.E-\	.	2.r;	.	.	2.r;	.	.	2.r;	.	.
*	*	*	*	*v	*v	*	*	*	*	*	*	*	*	*	*
==	==	==	==	==	==	==	==	==	==	==	==	==	==	==
*-	*-	*-	*-	*-	*-	*-	*-	*-	*-	*-	*-	*-	*-	*-
!!!system-decoration: [(s1,s2,s3)]s4[(s5,s6,s7,s8)]
!!!RDF**kern: > = above
!!!RDF**kern: < = below
!!!EED: Leszek Kubiak
!!!EST: 2021-04-27
!!!AIN: 1 cor 1 empty 1 viola 2 violn 3 vox
!!!ENC: Krzysztof Stępień
!!!END: 2021-04-10
